src/icons/svgs/24/grid-2.svg

<svg width="24" height="24" viewBox="0 0 24 24" fill="none" xmlns="http://www.w3.org/2000/svg">
<path d="M8.78571 13.2857H4.92857C3.86344 13.2857 3 14.1496 3 15.2143V19.0714C3 20.1362 3.86344 21 4.92857 21H8.78571C9.85045 21 10.7143 20.1362 10.7143 19.0714V15.2143C10.7143 14.1496 9.85045 13.2857 8.78571 13.2857ZM8.78571 19.0714H4.92857V15.2143H8.78571V19.0714ZM8.78571 3H4.92857C3.86344 3 3 3.86344 3 4.92857V8.78571C3 9.85045 3.86344 10.7143 4.92857 10.7143H8.78571C9.85045 10.7143 10.7143 9.85045 10.7143 8.78571V4.92857C10.7143 3.86344 9.85045 3 8.78571 3ZM8.78571 8.78571H4.92857V4.92857H8.78571V8.78571ZM19.0714 13.2857H15.2143C14.1496 13.2857 13.2857 14.1496 13.2857 15.2143V19.0714C13.2857 20.1366 14.1492 21 15.2143 21H19.0714C20.1366 21 21 20.1366 21 19.0714V15.2143C21 14.1496 20.1362 13.2857 19.0714 13.2857ZM19.0714 19.0714H15.2143V15.2143H19.0714V19.0714ZM19.0714 3H15.2143C14.1496 3 13.2857 3.86344 13.2857 4.92857V8.78571C13.2857 9.85045 14.1496 10.7143 15.2143 10.7143H19.0714C20.1362 10.7143 21 9.85045 21 8.78571V4.92857C21 3.86344 20.1362 3 19.0714 3ZM19.0714 8.78571H15.2143V4.92857H19.0714V8.78571Z" fill="black"/>
</svg>

<svg width="24" height="24" viewBox="0 0 24 24" xmlns="http://www.w3.org/2000/svg">
    <path d="M8.786 13.286H4.929A1.929 1.929 0 0 0 3 15.214v3.857C3 20.136 3.863 21 4.929 21h3.857a1.93 1.93 0 0 0 1.928-1.929v-3.857a1.93 1.93 0 0 0-1.928-1.928zm0 5.785H4.929v-3.857h3.857v3.857zM8.786 3H4.929A1.929 1.929 0 0 0 3 4.929v3.857c0 1.064.863 1.928 1.929 1.928h3.857a1.93 1.93 0 0 0 1.928-1.928V4.929A1.929 1.929 0 0 0 8.786 3zm0 5.786H4.929V4.929h3.857v3.857zm10.285 4.5h-3.857a1.93 1.93 0 0 0-1.928 1.928v3.857c0 1.066.863 1.929 1.928 1.929h3.857A1.929 1.929 0 0 0 21 19.071v-3.857a1.93 1.93 0 0 0-1.929-1.928zm0 5.785h-3.857v-3.857h3.857v3.857zm0-16.071h-3.857a1.929 1.929 0 0 0-1.928 1.929v3.857a1.93 1.93 0 0 0 1.928 1.928h3.857A1.93 1.93 0 0 0 21 8.786V4.929A1.929 1.929 0 0 0 19.071 3zm0 5.786h-3.857V4.929h3.857v3.857z"/>
</svg>
